X:1
T:Io vo morire
T:Io vo morire
T:Bartolomeo Spighi da Prato
C:Bartolomeo Spighi da Prato
%%score [ 1 2 3 ] { 4 | 5 }
L:1/8
Q:1/4=120
M:4/4
K:F
V:1 treble nm="Tenor 1" snm="A"
V:2 treble-8 nm="Tenor 2" snm="T"
V:3 bass nm="Bass" snm="B"
V:4 treble nm="MusicXML Part"
V:5 bass 
V:1
"^Source: Musical Concerto d'arie e canzonette---Fiorenza---Z.Pignoni---1641.\nEditor: André Vierendeels (11/12/08)\nContinuo: André Vierendeels" z4 d4- | %1
w: Io|
w: Io|
w: Io|
 d4 z2 fg |"^CANZONETTA" _e8 |[M:6/2] d8 d4 c8 c4 | d8 d4 _e8 d4 | c4 B4 B4 A8 A4 | B12 z12 | %7
w: _ vo mo-|ri-|re non sia nos-|sun di vi- ta|mi ra- gio- ni mai|piu|
w: _ gia m'uc-|ci-|do che vi- va|piu quest' al- ma|non sia mai ve- ro|no,|
w: _ l'al- ma|spi-|ro ne sia ve-|run soc- cor- ra|al mio gra- ve do-|lor|
 f4 c4 d4 e8 g4 | f8 d4 _e6 e2 e4 | f4 c8 d8 f4 | f8 g2 f2"^b" e8 f2-"^b" e2 | d6 d2 d4 f4 e8 | %12
w: mor- rom- mi dun- que'hor|su, hor su fe- li-|ce mor- te che|mi fa _ rai can- *|giar pen- sier' o for-|
w: mor- ro dun- que mor-|ro, o che mo- rir|be- a- to, che|mi fa- * rai can- *|giar for- tu- na'e sta-|
w: vie- ni dun- que del|cor mor- te gra- di-|* * ta, che|mi fa- * rai can _|giar le mor- te'in vi-|
[M:4/4] d8 :: f8 | f3 f ffff | f2 ff ffff | ddd_e dddd |[M:6/2] d8 z4 z8 d4 | f8 e2 d2 c8 f4 | %19
w: te|Deh,|deh com' io sa- ro sot-|ter- ra tu fi- ni- rai la|guer- ra tra- di- to- ra con- tro|me, tu|fi- ni- * rai la|
w: to|Si|se per il mi- o mo-|ri- re la guer- ra hai da|fi- ni- re, hai- _ da fi- ni-|re mor-|rom- mi _ in ques-|
w: ta,|Su|la guer- ra o- mai sa-|ra spen- ta, mor- ro co- si|con- ten ta, co- * si con- ten-|ta cru-|del- ac- * cio sa-|
 _e4 e4 e4 d8 e4 | c8 d4 _e4 e4 e4 | d6 c2 d2 B2 c2- B2 c4 A4 | G24 |] %23
w: guer- ra, tu fi- ni|rai la guer- ra, la|guer- ra tra- di- to- ra con- tro|me.|
w: to di, mor- rom- m'in-|ques- to di, mor- rom-|mi in ques- * * * * sto|di.|
w: rai tu, cru- del- ac-|cio sa- rai tu cru-|del- * ac- * cio _ sa- rai|tu.|
V:2
 z4 B4- | B4 z2 dB | c8 |[M:6/2] B8 ^F4 G8 G4 | A8 A4 B8 B4 | c4 d4 G4 G8 ^F4 | G12 G4 D4 E4 | %7
w: Io|_ vo- mo-|ri-|re non sia nos-|sun di vi- ta|mi ra- gio- ni mai|piu mo- rom- mi|
w: Io|_ _ m'uc-|ci-|do che vi- va|piu quest' al- ma|non sia mai ve- ro|no mor- ro dun-|
w: Io|_ l'al- ma|spi-|ro ne sia ve-|run soc- cor- ra|al mio gra- ve do-|lor vie- ni dun-|
 F8 F4 E8 z4 | z8 B4 G6 G2 B4 | B4 B4- A4 B8 d4 | d8 _e2 d2 c8 d2- c2 | B6 B2 B4 d4 d4- ^c4 | %12
w: dun- que'hor su|hor su fe- li-|ce mor- * te che|mi fa _ rai can- *|giar pen- sier' o for- *|
w: que mor- ro|o che mo- rir|be- a- * to, che|mi fa- * rai can- *|giar for- tu- na'e sta- *|
w: que del cor|mor- te gra- di-|* * * ta, che|mi fa- * rai can- *|giar le mor- te'in vi- *|
[M:4/4] d8 :: z8 | d3 d dddd | d2 dd dddd | BBBc BBBB |[M:6/2] B8 B4 d8 B4 | A8 G4 A4 A4 d4 | %19
w: te,||Deh com' io sa- ro sot-|ter- ra tu fi- ni- rai la|guer- ra tra- di- to- ra con- tro|me tu fi- ni-|rai la guer- ra, tu-|
w: to,||Si se per il mio mo-|ri- re la guer- ra hai da|fi- ni- re, hai _ da fi- ni-|re mor- rom- mi-|in ques- to di, mor-|
w: ta,||Su la guer- ra'o- mai sa-|ra spen- ta, mor- ro co- si|con- ten- ta, co- * si con- ten-|ta cru- del- ac-|cio sa- rai tu, cru-|
 B8 c4 d4 B8 | A4 A4 B4 G6 ^F2 G2 A2 | B4 A2 G2 ^F4 G4 G4 F4 | G24 |] %23
w: fi- ni- rai _|la guer- ra tra- * * di-|to _ _ _ ra con- tro|me.|
w: rom- mi in ques-|to di, mor- rom- * * *|mi _ _ _ in ques- to|di.|
w: del- ac- * cio|sa- rai, cru- del- * * *|ac- * * * cio sa- rai|tu.|
V:3
 G,8 | z2 B,G, B,4- | B,4 A,4 |[M:6/2] B,8 D,4 E,8 E,4 | ^F,8 F,4 G,8 G,,4 | %5
w: Io|* mo- ri-||re non- sia nos-|sun di vi- ta|
w: Io|* m'uc- ci-||do che vi- va|piu quest' al- ma|
w: Io|* ma spi-||ro ne sia ve-|run soc- cor- ra|
 A,,4 B,,4 C,4 D,8 D,4 | G,,12 z12 | D,4 A,,4 B,,4 C,8 _E,4 | D,8 G,4 _E,6 E,2 E,4 | %9
w: mi ra- gio- ni mai|piu|mor- rom- mi dun- que'hor|su hor su fe- li-|
w: non sia mai ve- ro|no|mor- ro dun- que mor-|ro o che mo- rir|
w: al mio gra- ve do-|lor|vie- ni dun- que del|cor mor- te gra- di-|
 D,4 F,8 B,,8 B,4 | B,8 G,4 A,8 F,4 | G,6 G,2 G,4 D,4 A,8 |[M:4/4] D,8 :: B,8 | %14
w: ce mor- te che|mi fa- rai can|giar pen- sier' o for-|te,|Deh,|
w: be- a- to, che|mi fa- rai can|giar for- tu- na'e sta-|to,|Si|
w: * * ta, che|mi fa- rai can|giar le- mor- te'in vi-|ta,|Su|
 B,,3 B,, B,,B,,B,,B,, | F,2 F,F, F,F,F,F, | G,G,G,C, D,D,D,D, |[M:6/2] G,,8 G,4 B,8 G,4 | %18
w: deh com' io sa- ro sot-|ter- ra tu fi- ni- rai la|guer- ra tra- di- to- ra con- tro|me tu fi- ni-|
w: se per il mi- o mo-|ri re la guer- ra hai da|fi- ni- re, hai _ da fi- ni-|re mor- rom- mi|
w: la guer- ra o- mai sa-|ra spen- ta, mor- ro co- si|con- ten ta, co- * si con- ten|ta cru- del- ac-|
 D,8 E,4 F,4 F,4 D,4 | G,8 A,4 B,8 _E,4 | F,4 F,4 B,,4 C,6 D,2"^b" E,2 ^F,2 | %21
w: rai la guer- ra, tu|fi- ni- rai la|guer- ra, la guer- * * *|
w: in ques- to di, mor-|rom- mi in ques-|to di, mor- rom- * * *|
w: cio sa- rai tu, cru-|cel- ac- cio sa-|rai, cru- del- ac- * * *|
 G,4 ^F,2 E,2 D,4 _E,4 C,4 D,4 | G,,24 |] %23
w: ra tra- di- to- ra con- tro|me.|
w: mi _ _ _ in ques- to|di.|
w: * * * * cio sa- rai|tu.|
V:4
 [DB]8- | [DB]8 | [Gc]8 |[M:6/2] [DFB]8 [^FA]4 [Gc]12 | [DA]12 [_EGB]8 [DGB]4 | %5
 [Ec]4 [DB]4 [GB]4 [DA]8 [^FA]4 | [DB]12 [DG]8 [CG]4 | [DF]4 [FA]4 [FB]4 [_Ec]12 | %8
 [FA]8 [DB]4 [Gc]8 [GB]4 | [FA]4 [Fc]8 [F-Bd-]12 | [FBd]8 [_EB]4 [Ec]8 [FA]4 | [DB]12 [GB]4 [EA]8 | %12
[M:4/4] [^FA]8 :: [DB]8 | [FB]8 | [DA]8 | [GB]8 |[M:6/2] [DB]12 [FB]8 [GB]4 | %18
 [FA]8 [EG]4 [FA]4 [Ac]4 [Fd]4 | [_EB]8 [Ac]4 [FBd]8 [GB]4 | [Ac]8 [Fd]4 [Gc]12 | %21
 [DB]8 [FA]4 [Gc]8 [^FA]4 | [DG=B]24 |] %23
V:5
 G,8 | z2 B,G, B,4- | B,4 A,4 |[M:6/2] B,8 D,4 E,8 E,4 | ^F,8 F,4 G,8 G,,4 | %5
 A,,4 B,,4 C,4 D,8 D,4 | G,,12 G,4 D,4 E,4 | D,4 A,,4 B,,4 C,8 _E,4 | D,8 G,4 _E,6 E,2 E,4 | %9
 D,4 F,8 B,,8 B,4 | B,8 G,4 A,8 F,4 | G,6 G,2 G,4 D,4 A,,8 |[M:4/4] D,8 :: B,8 | %14
 B,,3 B,, B,,B,,B,,B,, | F,2 F,F, F,F,F,F, | G,G,G,C, D,D,D,D, |[M:6/2] G,,8 G,4 B,8 G,4 | %18
 D,8 E,4 F,4 F,4 D,4 | %19
 G,8 A,4"^Notes: origina keys: Ut 3rd, Ut 4rth, Fa 4rth, Fa 4rth\n            editorial accidentals above the staff\n            dotted brackets indicate black notes" B,8 _E,4 | %20
"^b" F,4 F,4 B,,4 C,6 D,2 E,2 ^F,2 | G,4 ^F,2 E,2 D,4 _E,4 C,4 D,4 | G,,24 |] %23

